packages/webapp/public/images/template-logos/brex.svg

<svg width="62" height="62" viewBox="0 0 62 62" fill="none" xmlns="http://www.w3.org/2000/svg">
<rect width="62" height="62" rx="10" fill="white"/>
<g clip-path="url(#clip0_496_947)">
<path d="M37.5214 15.8598C35.8086 18.1481 35.3961 18.9103 33.7421 18.9103H9.06482V48.2548H18.7468C20.9311 48.2548 23.0564 47.198 24.4137 45.438C26.1855 43.0906 26.4212 42.3874 28.1321 42.3874H52.8684V13.043H43.1275C40.9432 13.043 38.8198 14.0998 37.5214 15.8598ZM45.1939 34.8171H34.8618C32.6186 34.8171 30.5521 35.756 29.1948 37.5749C27.423 39.9223 27.0695 40.6274 25.4155 40.6274H16.6804V26.5415H27.0125C29.2557 26.5415 31.3221 25.4848 32.6795 23.7248C34.4513 21.4364 34.9227 20.7312 36.5157 20.7312H45.1939V34.8171Z" fill="#010202"/>
</g>
<defs>
<clipPath id="clip0_496_947">
<rect width="44" height="35.3571" fill="white" transform="translate(9 13)"/>
</clipPath>
</defs>
</svg>

<svg xmlns="http://www.w3.org/2000/svg" width="62" height="62" fill="none"><rect width="62" height="62" rx="31" fill="#fff"/><g clip-path="url(#A)"><path d="M37.521 15.86c-1.713 2.288-2.125 3.05-3.779 3.05H9.065v29.345h9.682c2.184 0 4.31-1.057 5.667-2.817 1.772-2.347 2.008-3.05 3.718-3.05h24.736V13.043h-9.741a7.03 7.03 0 0 0-5.606 2.817zm7.672 18.957H34.862c-2.243 0-4.31.939-5.667 2.758-1.772 2.347-2.125 3.052-3.779 3.052H16.68V26.542h10.332c2.243 0 4.31-1.057 5.667-2.817 1.772-2.288 2.243-2.994 3.836-2.994h8.678v14.086z" fill="#010202"/></g><defs><clipPath id="A"><path fill="#fff" transform="translate(9 13)" d="M0 0h44v35.357H0z"/></clipPath></defs></svg>
